X:1
T:Title
%%score { ( 1 4 6 ) | ( 2 3 5 ) }
L:1/8
M:4/4
K:Eb
V:1 treble nm="Grand Piano"
V:4 treble 
V:6 treble 
V:2 bass 
V:3 bass 
V:5 bass 
V:1
 z4 z2[Q:1/4=86] E2 | [CE]EDE F<E [CE]2 | [_DF]AGF [CE]2 [Ec]2 | %3
 [Ec][Ec][D=B][Ec] [F_d]<[Ec] [Ec]2 | [DB][DB][DF][FA] [EG]2 [DE]2 | %5
 [CE][CE][=B,D][CE] [DF]<[CE] [CE]2 | [_DF][FA][EG][DF] [CE]2 [Ec]2 | eeee e[F_d][Ec]B | %8
[M:27/32] A/-<A/c/-<c/ z/4 z/4 z/4 z/4 z/4 z/4 z/ .A3/4 z/4 z/4 z/4 z/4 z/4 z/4 z/ |[M:1/4] E2 | %10
[M:4/4] (9:8:8EED3/2E F/E3/2c/- c2 |[M:3/4] (9:8:11c-c/8c-c/8 =B-B/8c-c/8 _d3/8c3/8-c3/2 | %12
[M:1/4] c2 |[M:4/4] (9:8:8eee3/2e e[F_d][Ec]3/2B | %14
[M:27/32] z/4 z/4 z/ c/4-c/-<c/ z/4 z/4 z/4 z/4 z/4 z/4 z/4 z/4 z/4 z/4 z/4 z/4 z/4 z/4 z/4 z/4 z/ |] %15
V:2
 z4 z2 C2 | z C=B,C D<C [A,,A,]2 | z[K:treble] FE_D[K:bass] [A,,A,]2 [A,,A,]2 | %3
 [A,,A,][A,,A,][A,,A,][A,,A,] [A,,A,]<[A,,A,] [A,,A,]2 | %4
 [B,,F,][B,,F,][B,,B,][B,,B,] [E,B,]2 [E,G,]2 | %5
 [A,,A,][A,,A,][A,,A,][A,,A,] [A,,A,]<[A,,A,] [A,,A,]2 | %6
 [_D,A,][D,A,][D,A,][D,A,] [A,,A,]2 [A,,A,]2 | %7
 [A,CE][A,CE][A,CE][A,CA][K:bass] [A,,C_G][B,,B,][C,A,][_D,A,_D] | %8
[M:27/32] [E,A,C]/-<[E,A,C]/[E,A,E]/-<[E,A,E]/[G,_D]/4-[G,D]/4-[G,D]/4-[G,D]/4-[G,D]/4-[G,D]/4-[G,D]/-<[G,D]/ z/4 z/4 z/4 z/4 z/4 z/4 z/4 z/ | %9
[M:1/4] C2 |[M:4/4][K:treble] (9:8:8CC=B,3/2C _D/C3/2E/- E2 | %11
[M:3/4] (9:8:11E-E/8E-E/8 D-D/8E-E/8 F3/8E3/8-E3/2 |[M:1/4] [A,E]2 | %13
[M:4/4] (9:8:8[A,CE][A,CE][A,CE]3/2[A,CA][K:bass] [A,,C_G][B,,B,][C,A,]3/2[_D,A,_D] | %14
[M:27/32] C/-<C/-[A,-CE-]/<[A,E]/-[G,-A,_D-E]/4[G,D]/4-[G,D]/4-[G,D]/4-[G,D]/-<[G,D]/-[E,-G,C-D]/4[E,C]/4-[A,,-E,A,-C]/4[A,,A,]/4-[A,,A,]/4-[A,,A,]/4-[A,,A,]/4-[A,,A,]/-<[A,,A,]/ |] %15
V:3
 x8 | [A,,A,]6 z2 | [_D,,_D,]4[K:treble][K:bass] z4 | x8 | x8 | x8 | x8 | x4[K:bass] x4 | %8
[M:27/32] z/4 z/4 z/4 z/4 z/4 z/4 z/ E,/4-E,/4-E,/4-E,/4-E,/-<E,/[E,A,C]3/4 z/4 z/4 z/4 z/4 z/4 z/4 z/ | %9
[M:1/4] x2 |[M:4/4][K:treble] x8 |[M:3/4] x6 |[M:1/4] x2 |[M:4/4] x4[K:bass] x4 | %14
[M:27/32] [E,A,]/-<[E,A,]/E,/-<E,/E,/4-E,/4-E,/4-E,/4-E,/-<E,/.A,3/4 z/4 z/4 z/4 z/4 z/4 z/4 z/ |] %15
V:4
 x8 | x8 | x8 | x8 | x8 | x8 | x8 | x8 | %8
[M:27/32] z/4 z/4 z/4 z/4 z/4 z/4 z/ B/4-B/4-B/4-B/4-B/4-B/4-B/-<B/[A,CA]/4-[A,CA]/4-[A,CA]/4-[A,CA]/4-[A,CA]/4-[A,CA]/-<[A,CA]/- | %9
[M:1/4] [A,CA]/4 z/4 z/ z |[M:4/4] x8 |[M:3/4] x6 |[M:1/4] x2 |[M:4/4] x511/64 | %14
[M:27/32] A/4-A/-<A/ z/4 z/ B/4-B/4-B/4-B/4-B/4-B/-<B/ z/4 z/4 z/4 z/4 z/4 z/4 z/4 z/4 z/ |] %15
V:5
 x8 | x8 | x[K:treble] x3[K:bass] x4 | x8 | x8 | x8 | x8 | x4[K:bass] x4 | %8
[M:27/32] z/4 z/4 z/4 z/4 z/4 z/4 z/4 z/4 z/4 z/4 z/4 z/4 z/4 z/4 z/4 z/4 z/ A,,/4-A,,/4-A,,/4-A,,/4-A,,/4-A,,/-<A,,/- | %9
[M:1/4] A,,/4 z/4 z/ z |[M:4/4][K:treble] x8 |[M:3/4] x6 |[M:1/4] x2 |[M:4/4] x4[K:bass] x4 | %14
[M:27/32] x27/4 |] %15
V:6
 x8 | x8 | x8 | x8 | x8 | x8 | x8 | x8 |[M:27/32] x27/4 |[M:1/4] x2 |[M:4/4] x8 |[M:3/4] x6 | %12
[M:1/4] x2 |[M:4/4] x511/64 | %14
[M:27/32] z/4 z/4 z/4 z/4 z/4 z/4 z/4 z/4 z/4 z/4 z/4 z/4 z/4 z/4 z/ A/[CA]/4-[CA]/4-[CA]/4-[CA]/4-[CA]/4-[CA]/-<[CA]/ |] %15

